svgs/sharp-regular/train-tram.svg

<svg xmlns="http://www.w3.org/2000/svg" viewBox="0 0 448 512"><!--! Font Awesome Pro 6.6.0 by @fontawesome - https://fontawesome.com License - https://fontawesome.com/license (Commercial License) Copyright 2024 Fonticons, Inc. --><path d="M63.3 0L72 0 376 0l8.7 0 6.7 5.6 48 40L408.6 82.4 367.3 48 248 48l0 48 88 0 48 0 0 48 0 256 0 48-30.1 0 47 47 17 17-67.9 0-64-64-124.1 0-64 64-67.9 0s0 0 0 0l17-17 47-47L64 448l0-48 0-256 0-48 48 0 88 0 0-48L80.7 48 39.4 82.4 8.6 45.6l48-40L63.3 0zM336 144l-224 0 0 96 224 0 0-96zM112 400l224 0 0-112-224 0 0 112zm48-72a24 24 0 1 1 0 48 24 24 0 1 1 0-48zm104 24a24 24 0 1 1 48 0 24 24 0 1 1 -48 0z"/></svg>

<svg xmlns="http://www.w3.org/2000/svg" viewBox="0 0 448 512"><!--! Font Awesome Pro 6.4.0 by @fontawesome - https://fontawesome.com License - https://fontawesome.com/license (Commercial License) Copyright 2023 Fonticons, Inc. --><path d="M63.3 0H72 376h8.7l6.7 5.6 48 40L408.6 82.4 367.3 48H248V96h88 48v48V400v48H353.9l47 47 17 17H350.1l-64-64H161.9l-64 64H30.1l0 0 17-17 47-47H64V400 144 96h48 88V48H80.7L39.4 82.4 8.6 45.6l48-40L63.3 0zM336 144H112v96H336V144zM112 400H336V288H112V400zm48-72a24 24 0 1 1 0 48 24 24 0 1 1 0-48zm104 24a24 24 0 1 1 48 0 24 24 0 1 1 -48 0z"/></svg>
